X: 1
T: Mrs Baker's
M: 4/4
L: 1/8
R: hornpipe
K: Fmaj
|: cB | A2 F2FAGF | EG B2BdcB | Acde fcdB | A2 F2F2 :|
|: (3cde | fcAc fagf | geAe gbag | afgb fdgf | e2 c2 c2 ec |
(3def (3ABc B2 ba | gfed c2 BA | (3Bcd (3EFG FdcB | A2 F2 F2 :|
